X:91
T:Polska fr{\aa}n \"Osterg\"otland
R:sl\"angpolska
H:jfr #106.
A:\"Osterg\"otland
B:Variant 1: Bagge 12. Variant 2: W{\ae}nerbergs samling, Sumlen 1976
Z:id:hn-sp-91
M:3/4
L:1/16
K:Dm
a3f d2d2 ^c2c2 | d2d2 e2e2 fefg | a3f d2d2 ^c2c2 | (A4 .d4) z4 :|
fefg a4 f2 z2 | gfga b4 g2 z2 | gfef g2e2 g2e2 | fefg a4 f2 z2 |
a3f d2d2 ^c2c2 | d2d2 e2e2 fefg | a3f d2d2 ^c2c2 | (A4 .d4) z4 || 
K:Am
e3c A2A2 ^G2G2 | A2A2 B2B2 {d}cBcd | e3c A2^G2 A2c2 |
[1 E2^F^G A4 A2z2 :|2 E2^F^G A4 A2z |: B | {d}cBcd e2c2 e2c2 |
dcde f4 d4 | {c}BABc d2B2 d2B2 | cBcd e4 c4 | e3c A2A2 ^G2G2 |
A2A2 B2B2 {d}cBcd | e3c A2^G2 A2c2 |1 E2^F^G A4 A2z :|2 E2^F^G A4 A2z2 ||
<end>
<start>
